ryanschofield9/Ground_Truth_Ros/ground_truth/csv_files/UFO_Test_5_0_-15_2025_01_20_12_35_45.csv
Tree,Branch,Trial,elbow_joint,shoulder_lift_joint,shoulder_pan_joint,wrist_1_joint,wrist_2_joint,wrist_3_joint,measured diameter,W1 Diameter,W2 Diameter,Mean Diameter,Median Diameter,Contact,Distance from Tree,Time (s),Angle Correction,Angle Correction Direction,Notes
5,1,1,1.6454361120807093,-0.7001561683467408,-2.171640698109762,-4.027976652184957,-1.053948704396383,1.3562626838684082,0.5,0.45979923009872437,0.45979923009872437,0.4881120026111603,0.48358193039894104,C,7.0,40.94,0.0,CW,N/a
5,1,2,1.6399849096881312,-0.6989947122386475,-2.1678136030780237,-4.021363397637838,-1.0574520269977015,1.6486473083496094,0.5,0.6038839221000671,0.5636250376701355,0.6207926869392395,0.6079098582267761,L,7.0,39.14,0.0,CW,N/a
5,1,3,1.6462391058551233,-0.6995814603618165,-2.173112217579977,-4.024604221383566,-1.052485767995016,1.6352739334106445,0.5,0.6195468306541443,0.5798323154449463,0.6261659264564514,0.6314612030982971,L,7.0,38.84,0.0,CW,N/a
5,1,4,1.6346309820758265,-0.6997969907573243,-2.178016964589254,-4.020861049691671,-1.047483269368307,1.5163378715515137,0.5,0.5462831258773804,0.5462831258773804,0.573597252368927,0.5657932162284851,C,8.5,42.64,0.0,CW,N/a
5,1,5,1.6340902487384241,-0.6981087487987061,-2.175253216420309,-4.021721979180807,-1.051873509083883,1.486243724822998,0.5,0.5095986127853394,0.4899986684322357,0.5213586091995239,0.5193986296653748,C,8.5,42.74,0.0,CW,N/a
5,1,6,1.6412094275103968,-0.7006350320628663,-2.17246658006777,-4.025800128976339,-1.0525577704059046,1.464733600616455,0.5,0.5249916911125183,0.4763813614845276,0.5395748019218445,0.5395748019218445,L,8.5,43.64,0.0,CW,N/a
5,2,1,1.6566608587848108,-0.7074356836131592,-2.172872845326559,-4.033645292321676,-1.0511062780963343,1.4873576164245605,0.75,0.7945291996002197,0.7267035245895386,0.7635232210159302,0.7460823059082031,L,8.5,43.04,0.0,CW,N/a
5,2,2,1.658989731465475,-0.7069088977626343,-2.1730645338641565,-4.034721513787741,-1.052378002797262,1.4783391952514648,0.75,0.6092555522918701,0.5512312054634094,0.6358500123023987,0.6479384303092957,C,8.5,43.74,0.0,CW,N/a
5,2,3,1.6513069311725062,-0.7034247678569336,-2.1716530958758753,-4.030452152291769,-1.053948704396383,1.4716081619262695,0.75,0.7523504495620728,0.7230380773544312,0.7621212005615234,0.7621212005615234,C,8.5,42.74,0.0,CW,N/a
5,2,4,1.6485450903521937,-0.7021197837642212,-2.169870678578512,-4.0288735828795375,-1.055964771901266,1.4981708526611328,0.75,0.8204145431518555,0.7739759683609009,0.8002911806106567,0.7894555330276489,C,7.0,38.24,0.0,CW,N/a
5,2,5,1.6495769659625452,-0.7028500598720093,-2.1715100447284144,-4.028777977029318,-1.0560486952411097,1.4786267280578613,0.75,0.750247597694397,0.6264954209327698,0.7287014722824097,0.7541148066520691,C,7.0,39.74,0.0,CW,N/a
5,2,6,1.6766975561725062,-0.7146672767451783,-2.1720240751849573,-4.044444223443502,-1.0535772482501429,1.4914770126342773,0.75,0.7915212512016296,0.7397394776344299,0.7848635911941528,0.7878225445747375,C,7.0,38.14,0.0,CW,One bad video before this
5,3,1,1.6675975958453577,-0.706453875904419,-2.176748577748434,-4.039505144158834,-1.0509141127215784,1.4935846328735352,1.0,1.0779109001159668,0.9980656504631042,1.036657452583313,1.0339959859848022,C,7.0,39.74,0.0,CW,
5,3,2,1.6615350882159632,-0.7084413331798096,-2.17489463487734,-4.035809894601339,-1.0522940794574183,1.487417221069336,1.0,1.0341944694519043,1.0341944694519043,1.0616651773452759,1.066512942314148,C,7.0,40.14,0.0,CW,N/a
5,3,3,1.6554601828204554,-0.704430417423584,-2.1722634474383753,-4.033752819100851,-1.0545247236834925,1.4732131958007812,1.0,1.050933837890625,1.0183467864990234,1.0672273635864258,1.0672273635864258,C,7.0,42.34,0.0,CW,N/a
5,3,4,1.6514747778521937,-0.7029099029353638,-2.1708157698260706,-4.03023686031484,-1.0567081610309046,1.4613561630249023,1.0,0.9108299612998962,0.9108299612998962,0.8525119423866272,0.9695932269096375,C,8.5,45.44,0.0,CW,N/a
5,3,5,1.645184342061178,-0.7028021377376099,-2.168818775807516,-4.027928968469137,-1.0573199431048792,1.460841178894043,1.0,1.0433450937271118,0.9941306710243225,1.0351426601409912,1.0384236574172974,C,8.5,43.24,0.0,CW,N/a
5,3,6,1.6441276709186,-0.7022993129542847,-2.170384709035055,-4.027007957498068,-1.0561326185809534,1.469799518585205,1.0,1.0250838994979858,1.0053707361221313,1.043154239654541,1.0300121307373047,C,8.5,44.54,0.0,CW,N/a
5,4,1,1.6636837164508265,-0.7096507114223023,-2.1727660338031214,-4.036778589288229,-1.0534332434283655,1.449906826019287,1.25,1.2599492073059082,1.240713357925415,1.2695672512054443,1.2647582292556763,C,8.5,44.64,0.0,CW,N/a
5,4,2,1.673504654561178,-0.7152659457973023,-2.17548114458193,-4.0429493389525355,-1.0517180601703089,1.493453025817871,1.25,1.278319239616394,1.2688502073287964,1.295363426208496,1.278319239616394,C,8.5,43.34,0.0,CW,N/a
5,4,3,1.663119141255514,-0.7096027892879029,-2.172622028981344,-4.03646769146108,-1.0531695524798792,1.4554996490478516,1.25,1.2221201658248901,1.2221201658248901,1.24778151512146,1.2461776733398438,C,8.5,43.74,0.0,CW,N/a
5,4,4,1.701881233845846,-0.7236110729030152,-2.1776211897479456,-4.0582808456816615,-1.0483468214618128,1.4562058448791504,1.25,1.30823814868927,1.292380690574646,1.3240954875946045,1.3320242166519165,C,7.0,39.04,0.0,CW,N/a
5,4,5,1.7045248190509241,-0.725263313656189,-2.1775859037982386,-4.058998247186178,-1.0476868788348597,1.4516429901123047,1.25,1.2590466737747192,1.2590466737747192,1.2880812883377075,1.290720820426941,C,7.0,40.94,0.0,CW,N/a
5,4,6,1.691580597554342,-0.7210249465755005,-2.1751816908465784,-4.052564283410543,-1.0512498060809534,1.460841178894043,1.25,1.3182158470153809,1.2535181045532227,1.2885626554489136,1.2899105548858643,R,7.0,40.84,0.0,CW,N/a
